X:17312
T:The Walk we took through the Graveyard
R:7/4 March
O:New Zealand
M:7/4
C:Mark Fitzsimons
A:Auckland
K:A min
ec A2G2A2 Bc de f2|ec A2G2A2 Bc BF E2|D2E2F2 cB FA EF G2|A2G2A2 Bc de f2 df|
ec A2G2A2 Bc de f2|ec A2G2A2 Bc BF E2|D2E2F2 cB FA EF G2|{c}A2G2A2 Bc dB E2 G2||
D2 EF{F}E2 DE F2 D2 E2|D2 EF {F}E2 D2 EF {F}E2 F2| G2 A2 G2 A2 Bc de {g}f2|ec A2 G2 A2 Bc BF E2|
D2 EF{F}E2 DE F2 D2 E2|D2 EF {F}E2 D2 EF {F}E2 F2| G2 A2 G2 cB FG EF G2|{c}A2 G2 A2 Bc de f2 df||
W:
